X: 1
T:Miss McPherson Grant of Ballindalloch
R:Jig
O:Scotland
M:6/8
C:William Marshall
K:A
E |\
E2A A2F | GAB Bcd | c2E AGA | B3 E3 |\
E2e e2c | dcd Bcd |
|1cde fed | cBA GFE :|2 cBA EFG | A3 A2 :|\
E|\
C2E A2=G | FEF D2F |
{F}d2c BcA | G3 E2E |\
FGA Bcd | cde fga | gfe Bc^d | e3 e2z |
f2D fed | {c}e2c ecA | \
FGA BcA | G3 E3 |\
F2d E2c | D2B C2e | {d}cBA EFG | A3 A,2 |]
